!!!OTL: "Der Reigen" ANNA MARI MARI WEND DI DREH DI
!!!ARE: Europa, Mitteleuropa, Oesterreich
!!!SCT: Z1343
!!!YEM: Copyright 1995, estate of Helmut Schaffrath.
**kern
*ICvox
*Ivox
*M3/8
*k[f#c#g#]
*A:
{16e
16a
16a
16a
16a
16a
=1
8b
4dd}
=2
{16e
16g#
16g#
16g#
16g#
16g#
=3
8a
4cc#}
=4
{16e
16a
16a
16a
16a
16a
=5
16b
16dd
4dd}
=6
{16e
16g#
16g#
16g#
8g#
=7
8b
4a}
==
!!!AGN: Zech -, Schalks - Lied
!!!ONB: ESAC (Essen Associative Code) Database: ZUCCAL
!!!AMT: simple triple
!!!AIN: vox
!!!EED: Helmut Schaffrath
!!!EEV: 1.0
*-
